X: 24623
T: Mac's Fancy
R: jig
M: 6/8
K: Amixolydian
af|e>AA fed|e>AA a2f|e>AA fed|dGG g2f|
e>AA fed|e>AA a2f|gag f2e|dBG G<G:|
|:B|A<Aa aea|aea aec|A<Aa aef|gfe dcB|
A<Aa aea|aea aef|gag fge|eBG G<G:|
|:af|e>AA f>AA|e>AA a>AA|e>AA f>AA|B>GG a2f|
e>AA f>AA|e>AA fed|gag feg|dBG G<G:|
|:B|(3A/A/A/a aeg|ada aAB|(3A/A/A/a aef|gBd BAG|
(3A/A/A/a aeg|ada aef|g>AA e>AA|dBG G<G:|

